X:1
T:Title
%%score { ( 1 3 ) | ( 2 4 ) }
L:1/8
Q:1/4=100
M:4/4
K:D
V:1 treble nm="Grand Piano"
V:3 treble 
V:2 bass 
V:4 bass 
V:1
 A3 A A2 F2 | [GB]2 [FA]2 [FA]2 F2 | D3 D [CE]2 [C=F]2 | F6 z2 | A3 A A2 F2 | %5
w: D.~B.~Towner * * *|||||
 [GB]2 [FA]2 [FA]2 F2 | E2 ^G2 B3 E | [CEA]6 z2 | z4 [FA]2 z2 | d3 B d4 | A3 F [GB]A[DFA][DF] | %11
w: ||||||
 [A,CE]6 z2 | F3 E G2 F2 | A2 G2 c2 B2 | AG[A,DF][B,DE] [A,CG]2[K:bass] [A,C]2 | [F,A,D]6 z2 |] %16
w: |||||
V:2
 [D,F,D]3 [D,F,D] [D,F,D]2 [D,A,D]2 | [D,D]2 [D,D]2 [D,D]2 [D,A,D]2 | %2
 [B,,^G,]3 [B,,G,] [A,,A,]2 [A,,A,]2 | [D,A,D]6 z2 | [D,F,D]3 [D,F,D] [D,F,D]2 [D,A,D]2 | %5
 [D,D]2 [D,D]2 [D,D]2 [D,A,D]2 | [E,A,C]2 [E,B,E]2 [E,DE]3 [E,D] | A,,6 z2 | D,3 D, D,2 F,2 | %9
 [G,B,G]3 [G,D] [G,B,G]4 | [F,D]3 [D,D] z F z A, | A,,4 A,,2 z2 | %12
 [D,A,D]3 [C,A,] [E,A,C]2 [D,A,D]2 | [F,A,D]2 [E,A,E]2 E2 [G,C]2 | [A,D]-[E,A,D]D,G,, A,,2 z G, | %15
 D,6 z2 |] %16
V:3
 x8 | x8 | x8 | x8 | x8 | x8 | x8 | x8 | [DFA]3 [A,DF] D2- [DA]2 | x8 | x8 | z4 z G,F,E, | x8 | %13
 x8 | x6[K:bass] x2 | x8 |] %16
V:4
 x8 | x8 | x8 | x8 | x8 | x8 | x8 | x8 | x8 | x8 | z4 [D,D]2 D,2 | x8 | x8 | z4 A,4 | %14
 .F,2 z2 z2 A,,2 | x8 |] %16

